static/logos/heap-wordmark-color.svg

<svg width="100" height="39" viewBox="0 0 100 39" fill="none" xmlns="http://www.w3.org/2000/svg">
<g clip-path="url(#clip0_1_2491)">
<path d="M5.23585 8.41449H0.8125V30.0888H5.23585V8.41449Z" fill="black"/>
<path d="M14.8218 0.15625H10.3984V16.67H14.8218V0.15625Z" fill="black"/>
<path d="M14.8218 21.8336H10.3984V38.3474H14.8218V21.8336Z" fill="#31D891"/>
<path d="M24.4077 8.41449H19.9844V30.0888H24.4077V8.41449Z" fill="#31D891"/>
<path d="M49.3835 30.0752V20.45H38.3229V30.0752H35.3281V8.40991H38.3229V17.6693H49.3835V8.40991H52.3799V30.0752H49.3835Z" fill="black"/>
<path d="M68.5165 25.8876C67.6917 28.4852 65.3377 30.532 61.9184 30.532C57.9771 30.532 54.5234 27.6604 54.5234 22.6795C54.5234 18.0653 57.8539 14.9173 61.5511 14.9173C66.0745 14.9173 68.6103 18.0338 68.6103 22.6187C68.6119 22.9253 68.5916 23.2315 68.5494 23.5351H57.4837C57.5446 26.1626 59.4397 27.9998 61.914 27.9998C64.2973 27.9998 65.4894 26.6861 66.0392 25.0351L68.5165 25.8876ZM65.6111 21.2126C65.5503 19.1041 64.1757 17.4546 61.579 17.4546C59.1656 17.4546 57.6985 19.3182 57.5753 21.2126H65.6111Z" fill="black"/>
<path d="M74.4931 21.6718L78.4651 21.0918C79.3522 20.9687 79.5963 20.5105 79.5963 19.9921C79.5963 18.5567 78.6491 17.3646 76.419 17.3646C74.4022 17.3646 73.271 18.6175 73.0869 20.3294L70.3377 19.6872C70.6428 16.8756 73.1794 14.9219 76.3574 14.9219C80.7561 14.9219 82.4687 17.4276 82.4687 20.3V27.6613C82.4591 28.4695 82.5202 29.2772 82.6513 30.0747H79.8411C79.7288 29.4187 79.6775 28.7535 79.688 28.088C79.0465 29.1282 77.5795 30.5329 74.952 30.5329C71.9572 30.5329 70.0312 28.4553 70.0312 26.1342C70.0312 23.5053 71.9572 22.0382 74.4931 21.6718ZM79.5963 23.7801V23.1086L75.1037 23.7801C73.8816 23.9642 72.9652 24.6658 72.9652 25.9795C72.9652 27.0792 73.8816 28.118 75.3487 28.118C77.7012 28.1195 79.5963 26.9883 79.5963 23.7801Z" fill="black"/>
<path d="M85.1797 35.8817V15.3771H87.9605V17.6696C88.7552 16.2034 90.4971 15.0414 92.8804 15.0414C97.2791 15.0414 99.6339 18.4335 99.6339 22.7113C99.6339 27.0814 97.0966 30.4728 92.7888 30.4728C90.5271 30.4728 88.8168 29.4039 88.0236 28.0887V35.8817H85.1797ZM92.3606 17.578C89.7331 17.578 87.9912 19.7773 87.9912 22.7097C87.9912 25.7347 89.7331 27.9047 92.3606 27.9047C95.0197 27.9047 96.7 25.7347 96.7 22.7097C96.7 19.7773 95.0505 17.578 92.3606 17.578Z" fill="black"/>
</g>
<defs>
<clipPath id="clip0_1_2491">
<rect width="100" height="38.8235" fill="white"/>
</clipPath>
</defs>
</svg>

<svg xmlns="http://www.w3.org/2000/svg" width="164.103" height="64" fill="none" viewBox="0 0 100 39"><g clip-path="url(#a)"><path fill="#000" d="M5.236 8.414H.813V30.09h4.423V8.414ZM14.822.156h-4.424V16.67h4.424V.156Z"/><path fill="#31D891" d="M14.822 21.834h-4.424v16.513h4.424V21.834ZM24.408 8.414h-4.424V30.09h4.424V8.414Z"/><path fill="#000" d="M49.383 30.075V20.45h-11.06v9.625h-2.995V8.41h2.995v9.26h11.06V8.41h2.997v21.665h-2.997ZM68.516 25.888c-.824 2.597-3.178 4.644-6.598 4.644-3.94 0-7.395-2.872-7.395-7.852 0-4.615 3.33-7.763 7.028-7.763 4.523 0 7.06 3.117 7.06 7.702 0 .306-.02.613-.062.916H57.484c.06 2.628 1.956 4.465 4.43 4.465 2.383 0 3.575-1.314 4.125-2.965l2.477.853Zm-2.905-4.675c-.06-2.109-1.435-3.758-4.032-3.758-2.413 0-3.88 1.863-4.004 3.758h8.036ZM74.493 21.672l3.972-.58c.887-.123 1.131-.581 1.131-1.1 0-1.435-.947-2.627-3.177-2.627-2.017 0-3.148 1.253-3.332 2.964l-2.75-.642c.306-2.811 2.842-4.765 6.02-4.765 4.4 0 6.112 2.506 6.112 5.378v7.361c-.01.808.051 1.616.182 2.414h-2.81a10.768 10.768 0 0 1-.153-1.987c-.642 1.04-2.109 2.445-4.736 2.445-2.995 0-4.92-2.078-4.92-4.399 0-2.629 1.925-4.096 4.461-4.462Zm5.103 2.108v-.671l-4.492.671c-1.222.184-2.139.886-2.139 2.2 0 1.1.917 2.138 2.384 2.138 2.352.002 4.247-1.13 4.247-4.338ZM85.18 35.882V15.377h2.78v2.293c.795-1.467 2.537-2.629 4.92-2.629 4.4 0 6.754 3.392 6.754 7.67 0 4.37-2.537 7.762-6.845 7.762-2.262 0-3.972-1.07-4.765-2.384v7.793H85.18Zm7.18-18.304c-2.627 0-4.369 2.2-4.369 5.132 0 3.025 1.742 5.195 4.37 5.195 2.659 0 4.339-2.17 4.339-5.195 0-2.933-1.65-5.132-4.34-5.132Z"/></g><defs><clipPath id="a"><path fill="#fff" d="M0 0h100v38.824H0z"/></clipPath></defs></svg>
